public/svg/486.svg

<svg width="900" height="600" viewBox="0 0 900 600" fill="none" xmlns="http://www.w3.org/2000/svg"><path fill="transparent" d="M0 0h900v600H0z"/><path fill-rule="evenodd" clip-rule="evenodd" d="m574.674 57.032 138.034 46.001a29.443 29.443 0 0 1 20.157 27.966v353.778c0 21.896-23.045 36.159-42.642 26.346l-107.798-53.9a58.862 58.862 0 0 0-52.721 0L405.61 519.286a58.862 58.862 0 0 1-52.721 0l-134.173-67.072a29.502 29.502 0 0 1-16.297-26.375V91.687c0-20.127 19.715-34.331 38.782-27.966l119.38 39.784a58.885 58.885 0 0 0 37.278 0l139.537-46.503c12.112-4.008 25.196-4.008 37.278.03z" fill="#fff" stroke="#E1E4E5" stroke-width="11"/><path fill-rule="evenodd" clip-rule="evenodd" d="M556.05 54.288v396.95-396.95z" fill="#fff"/><path d="M556.05 54.288v396.95" stroke="#E1E4E5" stroke-width="11"/><path fill-rule="evenodd" clip-rule="evenodd" d="M379.235 106.449v419.052-419.052z" fill="#fff"/><path d="M379.235 106.449v419.052" stroke="#E1E4E5" stroke-width="11"/><path d="m666 473.266 67.905 43.837 67.045-43.837-67.045-169.332L666 473.266z" fill="#fff" stroke="#E1E4E5" stroke-width="11"/><path stroke="#E1E4E5" stroke-width="11" d="M735.107 429.429v116.899m-41.843-92.149 42.128 30.095"/><path d="m458.336 453.325 67.905 43.837 67.045-43.837-67.045-169.332-67.905 169.332z" fill="#fff" stroke="#E1E4E5" stroke-width="11"/><path stroke="#E1E4E5" stroke-width="11" d="M527.443 409.488v116.899m-41.843-92.15 42.128 30.095"/><path d="m135.283 458.642 67.904 43.838 67.045-43.838-67.045-169.331-67.904 169.331z" fill="#fff" stroke="#E1E4E5" stroke-width="11"/><path stroke="#E1E4E5" stroke-width="11" d="M204.39 414.805v116.899m-41.843-92.149 42.128 30.095"/><path d="M263.578 235.807c27.009-118.42 202.912-118.283 229.784.137 15.766 69.466-27.558 128.265-65.535 164.639-27.558 26.528-71.157 26.528-98.851 0-37.841-36.374-81.165-95.31-65.398-164.776z" fill="#FD7600"/><path d="m342.774 278.764 28.798 29.298 56.365-57.149" stroke="#fff" stroke-width="24" stroke-linecap="round" stroke-linejoin="round"/><path fill-rule="evenodd" clip-rule="evenodd" d="M139.596 545.69v-37.022 37.022z" fill="#fff"/><path d="M139.596 545.69v-37.022" stroke="#E1E4E5" stroke-width="11"/><path fill-rule="evenodd" clip-rule="evenodd" d="M162.735 545.69v-26.224 26.224z" fill="#fff"/><path d="M162.735 545.69v-26.224" stroke="#E1E4E5" stroke-width="11"/><path fill-rule="evenodd" clip-rule="evenodd" d="M118 545.69v-26.224 26.224z" fill="#fff"/><path d="M118 545.69v-26.224" stroke="#E1E4E5" stroke-width="11"/><path fill-rule="evenodd" clip-rule="evenodd" d="M276.528 545.69v-37.022 37.022z" fill="#fff"/><path d="M276.528 545.69v-37.022" stroke="#E1E4E5" stroke-width="11"/><path fill-rule="evenodd" clip-rule="evenodd" d="M299.667 545.69v-26.224 26.224z" fill="#fff"/><path d="M299.667 545.69v-26.224" stroke="#E1E4E5" stroke-width="11"/><path fill-rule="evenodd" clip-rule="evenodd" d="M254.932 545.69v-26.224 26.224z" fill="#fff"/><path d="M254.932 545.69v-26.224" stroke="#E1E4E5" stroke-width="11"/><path fill-rule="evenodd" clip-rule="evenodd" d="M471.955 545.69v-37.022 37.022z" fill="#fff"/><path d="M471.955 545.69v-37.022" stroke="#E1E4E5" stroke-width="11"/><path fill-rule="evenodd" clip-rule="evenodd" d="M495.094 545.69v-26.224 26.224z" fill="#fff"/><path d="M495.094 545.69v-26.224" stroke="#E1E4E5" stroke-width="11"/><path fill-rule="evenodd" clip-rule="evenodd" d="M450.359 545.69v-26.224 26.224z" fill="#fff"/><path d="M450.359 545.69v-26.224" stroke="#E1E4E5" stroke-width="11"/><path fill-rule="evenodd" clip-rule="evenodd" d="M614.596 545.69v-37.022 37.022z" fill="#fff"/><path d="M614.596 545.69v-37.022" stroke="#E1E4E5" stroke-width="11"/><path fill-rule="evenodd" clip-rule="evenodd" d="M637.735 545.69v-26.224 26.224z" fill="#fff"/><path d="M637.735 545.69v-26.224" stroke="#E1E4E5" stroke-width="11"/><path fill-rule="evenodd" clip-rule="evenodd" d="M593 545.69v-26.224 26.224z" fill="#fff"/><path d="M593 545.69v-26.224" stroke="#E1E4E5" stroke-width="11"/></svg>

<svg width="900" height="600" viewBox="0 0 900 600" fill="none" xmlns="http://www.w3.org/2000/svg">
<g clip-path="url(#clip0_98_1603)">
<path fill-rule="evenodd" clip-rule="evenodd" d="M574.674 57.032L712.708 103.033C718.581 104.985 723.689 108.737 727.307 113.758C730.926 118.778 732.87 124.811 732.865 130.999V484.777C732.865 506.673 709.82 520.936 690.223 511.123L582.425 457.223C574.242 453.124 565.216 450.99 556.064 450.99C546.913 450.99 537.887 453.124 529.704 457.223L405.61 519.286C397.427 523.385 388.401 525.519 379.249 525.519C370.098 525.519 361.072 523.385 352.889 519.286L218.716 452.214C213.819 449.763 209.702 445.998 206.823 441.34C203.945 436.682 202.42 431.315 202.419 425.839V91.687C202.419 71.56 222.134 57.356 241.201 63.721L360.581 103.505C372.679 107.542 385.761 107.542 397.859 103.505L537.396 57.002C549.508 52.994 562.592 52.994 574.674 57.032V57.032Z" fill="white" stroke="#F8F8F8" stroke-width="11"/>
<path d="M556.05 54.2881V451.238" stroke="#F8F8F8" stroke-width="11"/>
<path d="M379.235 106.449V525.501" stroke="#F8F8F8" stroke-width="11"/>
<path d="M666 473.266L733.905 517.103L800.95 473.266L733.905 303.934L666 473.266Z" fill="white" stroke="#F8F8F8" stroke-width="11"/>
<path d="M735.107 429.429V546.328M693.264 454.179L735.392 484.274" stroke="#F8F8F8" stroke-width="11"/>
<path d="M458.336 453.325L526.241 497.162L593.286 453.325L526.241 283.993L458.336 453.325Z" fill="white" stroke="#F8F8F8" stroke-width="11"/>
<path d="M527.443 409.488V526.387M485.6 434.237L527.728 464.332" stroke="#F8F8F8" stroke-width="11"/>
<path d="M135.283 458.642L203.187 502.48L270.232 458.642L203.187 289.311L135.283 458.642V458.642Z" fill="white" stroke="#F8F8F8" stroke-width="11"/>
<path d="M204.39 414.805V531.704M162.547 439.555L204.675 469.65" stroke="#F8F8F8" stroke-width="11"/>
<path d="M263.578 235.807C290.587 117.387 466.49 117.524 493.362 235.944C509.128 305.41 465.804 364.209 427.827 400.583C400.269 427.111 356.67 427.111 328.976 400.583C291.135 364.209 247.811 305.273 263.578 235.807V235.807Z" fill="#FD7600"/>
<path d="M342.774 278.764L371.572 308.062L427.937 250.913" stroke="white" stroke-width="24" stroke-linecap="round" stroke-linejoin="round"/>
<path d="M139.596 545.69V508.668" stroke="#F8F8F8" stroke-width="11"/>
<path d="M162.735 545.69V519.466" stroke="#F8F8F8" stroke-width="11"/>
<path d="M118 545.69V519.466" stroke="#F8F8F8" stroke-width="11"/>
<path d="M276.528 545.69V508.668" stroke="#F8F8F8" stroke-width="11"/>
<path d="M299.667 545.69V519.466" stroke="#F8F8F8" stroke-width="11"/>
<path d="M254.932 545.69V519.466" stroke="#F8F8F8" stroke-width="11"/>
<path d="M471.955 545.69V508.668" stroke="#F8F8F8" stroke-width="11"/>
<path d="M495.094 545.69V519.466" stroke="#F8F8F8" stroke-width="11"/>
<path d="M450.359 545.69V519.466" stroke="#F8F8F8" stroke-width="11"/>
<path d="M614.596 545.69V508.668" stroke="#F8F8F8" stroke-width="11"/>
<path d="M637.735 545.69V519.466" stroke="#F8F8F8" stroke-width="11"/>
<path d="M593 545.69V519.466" stroke="#F8F8F8" stroke-width="11"/>
</g>
<defs>
<clipPath id="clip0_98_1603">
<rect width="900" height="600" fill="white"/>
</clipPath>
</defs>
</svg>
